public/img/top/com-3.svg

<svg fill="none" height="205" viewBox="0 0 180 205" width="180" xmlns="http://www.w3.org/2000/svg" xmlns:xlink="http://www.w3.org/1999/xlink"><filter id="a" color-interpolation-filters="sRGB" filterUnits="userSpaceOnUse" height="203.321" width="178.569" x=".674166" y=".945312"><feFlood flood-opacity="0" result="BackgroundImageFix"/><feColorMatrix in="SourceAlpha" result="hardAlpha" type="matrix" values="0 0 0 0 0 0 0 0 0 0 0 0 0 0 0 0 0 0 127 0"/><feOffset dx="-8.91292" dy="9.65566"/><feGaussianBlur stdDeviation="4.45646"/><feColorMatrix type="matrix" values="0 0 0 0 0.316369 0 0 0 0 0.366988 0 0 0 0 0.353496 0 0 0 0.25741 0"/><feBlend in2="BackgroundImageFix" mode="normal" result="effect1_dropShadow_557_424"/><feColorMatrix in="SourceAlpha" result="hardAlpha" type="matrix" values="0 0 0 0 0 0 0 0 0 0 0 0 0 0 0 0 0 0 127 0"/><feOffset dx="-2.22823" dy="5.1992"/><feGaussianBlur stdDeviation="1.48549"/><feColorMatrix type="matrix" values="0 0 0 0 0 0 0 0 0 0 0 0 0 0 0 0 0 0 0.144615 0"/><feBlend in2="effect1_dropShadow_557_424" mode="normal" result="effect2_dropShadow_557_424"/><feBlend in="SourceGraphic" in2="effect2_dropShadow_557_424" mode="normal" result="shape"/></filter><g filter="url(#a)"><path d="m98.5.945312 80 46.187988v92.3757l-80 46.188-80-46.188v-92.3757z" fill="#000"/></g><path d="m98.5.945312 80 46.187988v92.3757l-80 46.188-80-46.188v-92.3757z" fill="#f0f5f6"/><path clip-rule="evenodd" d="m131.711 122.557v-3.716l-2.953-2.056v-39.6845l1.741-.5588v-5.9773h4.349l-.5-5.5596-36.6247-10.7023-37.5719 10.7023v5.5596h4.1248l-.4867 5.9773 2.5408.5588v39.6845l-2.0541.765-1.2106 1.932v4.129h68.0474z" fill="#fff" fill-rule="evenodd"/><path d="m88.6797 96.252v22.782h17.0663v-22.782z" style="fill-rule:evenodd;clip-rule:evenodd;fill:#00e599;stroke:#000;stroke-width:1.2181;stroke-linejoin:round"/><path d="m103.583 115.195v-2.338c0-.234-.131-.423-.394-.57-.263-.146-.394-.219-.394-.219l-3.4915-1.666c.2753-.217.5089-.478.7005-.783.192-.304.346-.622.463-.951.117-.33.2-.654.25-.971.051-.317.076-.597.076-.839v-2.004c0-.334-.107-.668-.32-1.002-.212-.335-.4875-.635-.8254-.902-.3378-.268-.7215-.485-1.1512-.652-.4296-.167-.8654-.25-1.3076-.25-.4421 0-.88.083-1.3138.25s-.8196.384-1.1575.652c-.3378.267-.611.567-.8196.902-.2085.334-.3128.668-.3128 1.002v2.004c0 .217.025.482.0751.795s.1356.635.2565.964c.121.33.2774.654.4692.971.1919.317.4297.589.7133.814l-3.5161 1.666s-.1335.077-.4005.232c-.2669.154-.4004.34-.4004.557v2.338" fill="#003"/><path clip-rule="evenodd" d="m117.101 122.558h14.008v-3.556c0-.725-.524-1.316-1.17-1.316h-11.668c-.645 0-1.17.591-1.17 1.316zm14.489 1.656h-15.019c-.561 0-1.017-.447-1.017-.998v-3.865c0-1.685 1.399-3.055 3.119-3.055h10.815c1.72 0 3.119 1.37 3.119 3.055v3.865c0 .551-.455.998-1.017.998z" fill="#000" fill-rule="evenodd"/><path clip-rule="evenodd" d="m63.8087 122.558h14.0081v-3.556c0-.725-.5242-1.316-1.17-1.316h-11.6681c-.645 0-1.17.591-1.17 1.316zm14.4894 1.656h-15.0186c-.5613 0-1.0178-.447-1.0178-.998v-3.865c0-1.685 1.3996-3.055 3.1192-3.055h10.815c1.7204 0 3.1192 1.37 3.1192 3.055v3.865c0 .551-.4549.998-1.017.998z" fill="#000" fill-rule="evenodd"/><path clip-rule="evenodd" d="m60.9591 70.0197h72.8599v-4.3559l-36.4305-10.6617-36.4294 10.3571zm73.6079 1.8028h-74.3567c-.5821 0-1.0541-.472-1.0541-1.0541v-5.5878c0-.467.3084-.8781.7548-1.0097l37.179-10.9725c.1949-.0575.4021-.0575.597 0l37.179 10.9725c.448.1316.756.5427.756 1.0097v5.5878c0 .5821-.473 1.0541-1.055 1.0541z" fill="#000" fill-rule="evenodd"/><path clip-rule="evenodd" d="m115.422 66.0586h-36.067c-.5813 0-1.0532-.4092-1.0532-.9132 0-.5048.4719-.914 1.0532-.914h36.067c.582 0 1.054.4092 1.054.914 0 .504-.472.9132-1.054.9132z" fill="#000" fill-rule="evenodd"/><path clip-rule="evenodd" d="m135.699 124.384h-75.4895c-.5821 0-1.0533-.409-1.0533-.913 0-.505.4712-.914 1.0533-.914h75.4895c.581 0 1.053.409 1.053.914 0 .504-.472.913-1.053.913z" fill="#000" fill-rule="evenodd"/><g stroke="#000" stroke-linejoin="round" stroke-width="1.52262"><path d="m76.4691 70.9841h-12.181v6.0905h12.181z"/><path d="m130.066 70.9841h-12.181v6.0905h12.181z"/><path d="m114.84 106.917v-8.5264h-4.873v8.5264z"/><path d="m84.3867 106.917v-8.5264h-4.8724v8.5264z"/><path d="m114.84 89.5609v-8.5267h-4.873v8.5267z"/><path d="m99.918 89.5609v-8.5267h-4.8724v8.5267z"/><path d="m84.3867 89.5609v-8.5267h-4.8724v8.5267z"/><path d="m128.847 77.0762h-9.744v39.5878h9.744z"/><path d="m75.2516 77.0762h-9.7448v39.5878h9.7448z"/></g></svg>

<svg width="180" height="205" viewBox="0 0 180 205" fill="none" xmlns="http://www.w3.org/2000/svg">
<g filter="url(#filter0_dd_557_424)">
<path d="M98.5 0.945312L178.5 47.1333V139.509L98.5 185.697L18.5 139.509V47.1333L98.5 0.945312Z" fill="black"/>
</g>
<path d="M98.5 0.945312L178.5 47.1333V139.509L98.5 185.697L18.5 139.509V47.1333L98.5 0.945312Z" fill="#F0F5F6"/>
<path fill-rule="evenodd" clip-rule="evenodd" d="M131.711 122.557V118.841L128.758 116.785V77.1005L130.499 76.5417V70.5644H134.848L134.348 65.0048L97.7233 54.3025L60.1514 65.0048V70.5644H64.2762L63.7895 76.5417L66.3303 77.1005V116.785L64.2762 117.55L63.0656 119.482V123.611H131.113L131.711 122.557Z" fill="white"/>
<path fill-rule="evenodd" clip-rule="evenodd" d="M88.6797 96.252V119.034H105.746V96.252H88.6797Z" fill="#00E599" stroke="black" stroke-width="1.2181" stroke-linejoin="round"/>
<path d="M103.583 115.195V112.857C103.583 112.623 103.452 112.434 103.189 112.287C102.926 112.141 102.795 112.068 102.795 112.068L99.3035 110.402C99.5788 110.185 99.8124 109.924 100.004 109.619C100.196 109.315 100.35 108.997 100.467 108.668C100.584 108.338 100.667 108.014 100.717 107.697C100.768 107.38 100.793 107.1 100.793 106.858V104.854C100.793 104.52 100.686 104.186 100.473 103.852C100.261 103.517 99.9855 103.217 99.6476 102.95C99.3098 102.682 98.9261 102.465 98.4964 102.298C98.0668 102.131 97.631 102.048 97.1888 102.048C96.7467 102.048 96.3088 102.131 95.875 102.298C95.4412 102.465 95.0554 102.682 94.7175 102.95C94.3797 103.217 94.1065 103.517 93.8979 103.852C93.6894 104.186 93.5851 104.52 93.5851 104.854V106.858C93.5851 107.075 93.6101 107.34 93.6602 107.653C93.7103 107.966 93.7958 108.288 93.9167 108.617C94.0377 108.947 94.1941 109.271 94.3859 109.588C94.5778 109.905 94.8156 110.177 95.0992 110.402L91.5831 112.068C91.5831 112.068 91.4496 112.145 91.1826 112.3C90.9157 112.454 90.7822 112.64 90.7822 112.857V115.195" fill="#000033"/>
<path fill-rule="evenodd" clip-rule="evenodd" d="M117.101 122.558H131.109V119.002C131.109 118.277 130.585 117.686 129.939 117.686H118.271C117.626 117.686 117.101 118.277 117.101 119.002V122.558ZM131.59 124.214H116.571C116.01 124.214 115.554 123.767 115.554 123.216V119.351C115.554 117.666 116.953 116.296 118.673 116.296H129.488C131.208 116.296 132.607 117.666 132.607 119.351V123.216C132.607 123.767 132.152 124.214 131.59 124.214Z" fill="black"/>
<path fill-rule="evenodd" clip-rule="evenodd" d="M63.8087 122.558H77.8168V119.002C77.8168 118.277 77.2926 117.686 76.6468 117.686H64.9787C64.3337 117.686 63.8087 118.277 63.8087 119.002V122.558ZM78.2981 124.214H63.2795C62.7182 124.214 62.2617 123.767 62.2617 123.216V119.351C62.2617 117.666 63.6613 116.296 65.3809 116.296H76.1959C77.9163 116.296 79.3151 117.666 79.3151 119.351V123.216C79.3151 123.767 78.8602 124.214 78.2981 124.214Z" fill="black"/>
<path fill-rule="evenodd" clip-rule="evenodd" d="M60.9591 70.0197H133.819V65.6638L97.3885 55.0021L60.9591 65.3592V70.0197ZM134.567 71.8225H60.2103C59.6282 71.8225 59.1562 71.3505 59.1562 70.7684V65.1806C59.1562 64.7136 59.4646 64.3025 59.911 64.1709L97.09 53.1984C97.2849 53.1409 97.4921 53.1409 97.687 53.1984L134.866 64.1709C135.314 64.3025 135.622 64.7136 135.622 65.1806V70.7684C135.622 71.3505 135.149 71.8225 134.567 71.8225Z" fill="black"/>
<path fill-rule="evenodd" clip-rule="evenodd" d="M115.422 66.0586H79.355C78.7737 66.0586 78.3018 65.6494 78.3018 65.1454C78.3018 64.6406 78.7737 64.2314 79.355 64.2314H115.422C116.004 64.2314 116.476 64.6406 116.476 65.1454C116.476 65.6494 116.004 66.0586 115.422 66.0586Z" fill="black"/>
<path fill-rule="evenodd" clip-rule="evenodd" d="M135.699 124.384H60.2095C59.6274 124.384 59.1562 123.975 59.1562 123.471C59.1562 122.966 59.6274 122.557 60.2095 122.557H135.699C136.28 122.557 136.752 122.966 136.752 123.471C136.752 123.975 136.28 124.384 135.699 124.384Z" fill="black"/>
<path d="M76.4691 70.9841H64.2881V77.0746H76.4691V70.9841Z" stroke="black" stroke-width="1.52262" stroke-linejoin="round"/>
<path d="M130.066 70.9841H117.885V77.0746H130.066V70.9841Z" stroke="black" stroke-width="1.52262" stroke-linejoin="round"/>
<path d="M114.84 106.917V98.3906H109.967V106.917H114.84Z" stroke="black" stroke-width="1.52262" stroke-linejoin="round"/>
<path d="M84.3867 106.917V98.3906H79.5143V106.917H84.3867Z" stroke="black" stroke-width="1.52262" stroke-linejoin="round"/>
<path d="M114.84 89.5609V81.0342H109.967V89.5609H114.84Z" stroke="black" stroke-width="1.52262" stroke-linejoin="round"/>
<path d="M99.918 89.5609V81.0342H95.0456V89.5609H99.918Z" stroke="black" stroke-width="1.52262" stroke-linejoin="round"/>
<path d="M84.3867 89.5609V81.0342H79.5143V89.5609H84.3867Z" stroke="black" stroke-width="1.52262" stroke-linejoin="round"/>
<path d="M128.847 77.0762H119.103V116.664H128.847V77.0762Z" stroke="black" stroke-width="1.52262" stroke-linejoin="round"/>
<path d="M75.2516 77.0762H65.5068V116.664H75.2516V77.0762Z" stroke="black" stroke-width="1.52262" stroke-linejoin="round"/>
<defs>
<filter id="filter0_dd_557_424" x="0.674166" y="0.945312" width="178.569" height="203.321" filterUnits="userSpaceOnUse" color-interpolation-filters="sRGB">
<feFlood flood-opacity="0" result="BackgroundImageFix"/>
<feColorMatrix in="SourceAlpha" type="matrix" values="0 0 0 0 0 0 0 0 0 0 0 0 0 0 0 0 0 0 127 0" result="hardAlpha"/>
<feOffset dx="-8.91292" dy="9.65566"/>
<feGaussianBlur stdDeviation="4.45646"/>
<feColorMatrix type="matrix" values="0 0 0 0 0.316369 0 0 0 0 0.366988 0 0 0 0 0.353496 0 0 0 0.25741 0"/>
<feBlend mode="normal" in2="BackgroundImageFix" result="effect1_dropShadow_557_424"/>
<feColorMatrix in="SourceAlpha" type="matrix" values="0 0 0 0 0 0 0 0 0 0 0 0 0 0 0 0 0 0 127 0" result="hardAlpha"/>
<feOffset dx="-2.22823" dy="5.1992"/>
<feGaussianBlur stdDeviation="1.48549"/>
<feColorMatrix type="matrix" values="0 0 0 0 0 0 0 0 0 0 0 0 0 0 0 0 0 0 0.144615 0"/>
<feBlend mode="normal" in2="effect1_dropShadow_557_424" result="effect2_dropShadow_557_424"/>
<feBlend mode="normal" in="SourceGraphic" in2="effect2_dropShadow_557_424" result="shape"/>
</filter>
</defs>
</svg>
